apps/scalable/citra.svg

<svg xmlns="http://www.w3.org/2000/svg" style="isolation:isolate" width="256" height="256"><defs><filter id="a" width="270.648" height="254.338" x="-7.32" y="2.95" filterUnits="userSpaceOnUse"><feGaussianBlur xmlns="http://www.w3.org/2000/svg" in="SourceGraphic" stdDeviation="4.294"/><feOffset xmlns="http://www.w3.org/2000/svg" dy="4" result="pf_100_offsetBlur"/><feFlood xmlns="http://www.w3.org/2000/svg" flood-opacity=".4"/><feComposite xmlns="http://www.w3.org/2000/svg" in2="pf_100_offsetBlur" operator="in" result="pf_100_dropShadow"/><feBlend xmlns="http://www.w3.org/2000/svg" in="SourceGraphic" in2="pf_100_dropShadow"/></filter></defs><path fill="#F7F7F7" d="M165.685 11.947c74.055 0 84.639 10.557 84.639 84.544v59.251c0 73.986-10.584 84.543-84.639 84.543h-75.37c-74.055 0-84.639-10.557-84.639-84.543V96.491c0-73.987 10.584-84.544 84.639-84.544h75.37z" filter="url(#a)"/><linearGradient id="b" x1="1.377" x2="-.638" y1="-.406" y2="1.875" gradientTransform="matrix(109.801 0 0 84.223 140.523 83.936)" gradientUnits="userSpaceOnUse"><stop offset="0%" stop-color="#f7a076"/><stop offset="44.55%" stop-color="#f3816c"/><stop offset="100%" stop-color="#f06878"/></linearGradient><path fill="url(#b)" d="M250.025 168.159c.096-4.135.299-7.799.299-12.414V96.493c0-4.668-.205-8.38-.303-12.557-35.682 10.393-109.498 41.918-109.498 41.918s73.67 31.935 109.502 42.305z"/><linearGradient id="c" x1=".96" x2="-1.015" y1="-.038" y2="2.196" gradientTransform="matrix(112.047 0 0 105.875 137.387 12.401)" gradientUnits="userSpaceOnUse"><stop offset="0%" stop-color="#9dc63b"/><stop offset="100%" stop-color="#9bc183"/></linearGradient><path fill="url(#c)" d="M249.434 68.126c-.175-2.35-.333-4.747-.575-6.908-.364-3.254-.808-6.298-1.345-9.147-.538-2.848-1.168-5.501-1.905-7.971-.736-2.469-1.578-4.755-2.539-6.871a39.5 39.5 0 0 0-3.252-5.847 33.261 33.261 0 0 0-4.043-4.905 33.279 33.279 0 0 0-4.91-4.037 39.619 39.619 0 0 0-5.855-3.248c-2.118-.959-4.407-1.8-6.879-2.535-2.472-.735-5.127-1.366-7.979-1.902-2.851-.537-5.899-.98-9.156-1.344a198.576 198.576 0 0 0-10.412-.863c-1.811-.107-4.192-.071-6.111-.147-17.961 33.275-47.086 105.875-47.086 105.875s82.454-32.563 112.047-50.15z"/><linearGradient id="d" x1="1.233" x2="-1.197" y1="-.515" y2="2.235" gradientTransform="matrix(80.369 0 0 103.188 89.758 11.95)" gradientUnits="userSpaceOnUse"><stop offset="0%" stop-color="#d5de26"/><stop offset="100%" stop-color="#c5d94b"/></linearGradient><path fill="url(#d)" d="M170.127 12.057c-1.589-.011-2.79-.107-4.441-.107H90.314c-.207 0-.35.014-.556.014 11.979 37.497 40.051 103.174 40.051 103.174s28.399-65.568 40.318-103.081z"/><linearGradient id="e" x1="1.489" x2="-.427" y1="-.589" y2="1.579" gradientTransform="matrix(115.453 0 0 105.969 6.777 12.305)" gradientUnits="userSpaceOnUse"><stop offset="0%" stop-color="#f2d200"/><stop offset="100%" stop-color="#fdef52"/></linearGradient><path fill="url(#e)" d="M75.477 12.305c-3.278.095-7.08.068-10.061.243-3.688.216-7.155.499-10.412.863-3.257.364-6.305.807-9.156 1.344-2.852.536-5.507 1.167-7.979 1.902-2.472.735-4.761 1.576-6.879 2.535a39.619 39.619 0 0 0-5.855 3.248 33.279 33.279 0 0 0-4.91 4.037 33.261 33.261 0 0 0-4.043 4.905 39.5 39.5 0 0 0-3.252 5.847c-.961 2.116-1.803 4.402-2.539 6.871-.737 2.47-1.367 5.123-1.905 7.971-.537 2.849-.981 5.893-1.345 9.147-.153 1.363-.238 2.921-.364 4.359 25.351 16.556 115.453 52.697 115.453 52.697S93.541 45.673 75.477 12.305z"/><linearGradient id="f" x1="1.585" x2="-.366" y1="-1.471" y2=".737" gradientTransform="matrix(113.414 0 0 86.18 5.676 82.532)" gradientUnits="userSpaceOnUse"><stop offset="0%" stop-color="#ffcd10"/><stop offset="100%" stop-color="#f29634"/></linearGradient><path fill="url(#f)" d="M6.012 82.532c-.123 4.584-.336 8.77-.336 13.961v59.252c0 4.821.208 8.67.312 12.967 33.834-9.03 113.102-42.86 113.102-42.86S40.265 91.674 6.012 82.532z"/><linearGradient id="g" x1="1.952" x2=".037" y1="-1.28" y2=".888" gradientTransform="matrix(115.52 0 0 106.482 6.707 133.432)" gradientUnits="userSpaceOnUse"><stop offset="0%" stop-color="#f79f1c"/><stop offset="44.55%" stop-color="#f08021"/><stop offset="100%" stop-color="#ed693c"/></linearGradient><path fill="url(#g)" d="M6.707 185.815c.144 1.735.251 3.577.434 5.205.364 3.254.808 6.298 1.345 9.147.538 2.848 1.168 5.501 1.905 7.97.736 2.47 1.578 4.756 2.539 6.872a39.5 39.5 0 0 0 3.252 5.847 33.261 33.261 0 0 0 4.043 4.905 33.342 33.342 0 0 0 4.91 4.037 39.619 39.619 0 0 0 5.855 3.248c2.118.959 4.407 1.8 6.879 2.535 2.472.735 5.127 1.366 7.979 1.902 2.851.537 5.899.98 9.156 1.344 3.257.364 6.724.647 10.412.863 2.775.163 6.335.132 9.367.225 17.924-32.93 47.444-106.483 47.444-106.483s-89.886 35.52-115.52 52.383z"/><linearGradient id="h" x1="2.466" x2=".047" y1="-.866" y2="1.871" gradientTransform="matrix(80.725 0 0 103.717 89.279 136.571)" gradientUnits="userSpaceOnUse"><stop offset="0%" stop-color="#e47c26"/><stop offset="44.55%" stop-color="#df5b27"/><stop offset="100%" stop-color="#dd3a3a"/></linearGradient><path fill="url(#h)" d="M89.279 240.262c.382.001.651.026 1.035.026h75.372c1.605 0 2.772-.093 4.318-.104-11.904-37.424-40.199-103.613-40.199-103.613s-28.716 66.28-40.526 103.691z"/><linearGradient id="i" x1="1.438" x2="-.537" y1="-.731" y2="1.504" gradientTransform="matrix(112.047 0 0 106.404 137.385 133.434)" gradientUnits="userSpaceOnUse"><stop offset="0%" stop-color="#f3783c"/><stop offset="44.55%" stop-color="#ef5339"/><stop offset="100%" stop-color="#ed294a"/></linearGradient><path fill="url(#i)" d="M184.379 239.839c1.95-.077 4.367-.041 6.205-.149 3.688-.216 7.155-.499 10.412-.863 3.257-.364 6.305-.807 9.156-1.344 2.852-.536 5.507-1.167 7.979-1.902 2.472-.735 4.761-1.576 6.879-2.535a39.619 39.619 0 0 0 5.855-3.248 33.342 33.342 0 0 0 4.91-4.037 33.261 33.261 0 0 0 4.043-4.905 39.5 39.5 0 0 0 3.252-5.847c.961-2.116 1.803-4.402 2.539-6.872.737-2.469 1.367-5.122 1.905-7.97.537-2.849.981-5.893 1.345-9.147.241-2.153.398-4.542.573-6.883-28.802-17.264-112.047-50.703-112.047-50.703s28.946 73.251 46.994 106.405z"/><g opacity=".4"><linearGradient id="j" x1=".517" x2=".517" y2="1"><stop offset="0%" stop-color="#fff"/><stop offset="12.5%" stop-opacity=".098" stop-color="#fff"/><stop offset="92.5%" stop-opacity=".098"/><stop offset="100%" stop-opacity=".498"/></linearGradient><path fill="none" stroke="url(#j)" stroke-linecap="round" stroke-linejoin="round" stroke-width="4.077" d="M165.685 11.947c74.055 0 84.639 10.557 84.639 84.544v59.251c0 73.986-10.584 84.543-84.639 84.543h-75.37c-74.055 0-84.639-10.557-84.639-84.543V96.491c0-73.987 10.584-84.544 84.639-84.544h75.37z" vector-effect="non-scaling-stroke"/></g></svg>

<svg xmlns="http://www.w3.org/2000/svg" style="isolation:isolate" width="256" height="256" viewBox="0 0 256 256">
 <defs>
  <filter id="NecVVOiVtBUyGxqBAKIIl5QWm8rWfgXj" width="270.648" height="254.338" x="-7.32" y="2.95" filterUnits="userSpaceOnUse">
   <feGaussianBlur xmlns="http://www.w3.org/2000/svg" in="SourceGraphic" stdDeviation="4.294"/>
   <feOffset xmlns="http://www.w3.org/2000/svg" dx="0" dy="4" result="pf_100_offsetBlur"/>
   <feFlood xmlns="http://www.w3.org/2000/svg" flood-opacity=".4"/>
   <feComposite xmlns="http://www.w3.org/2000/svg" in2="pf_100_offsetBlur" operator="in" result="pf_100_dropShadow"/>
   <feBlend xmlns="http://www.w3.org/2000/svg" in="SourceGraphic" in2="pf_100_dropShadow" mode="normal"/>
  </filter>
 </defs>
 <g filter="url(#NecVVOiVtBUyGxqBAKIIl5QWm8rWfgXj)">
  <path fill="#F7F7F7" d="M 165.685 11.947 C 239.74 11.947 250.324 22.504 250.324 96.491 L 250.324 155.742 C 250.324 229.728 239.74 240.285 165.685 240.285 L 90.315 240.285 C 16.26 240.285 5.676 229.728 5.676 155.742 L 5.676 96.491 C 5.676 22.504 16.26 11.947 90.315 11.947 L 165.685 11.947 Z"/>
 </g>
 <g>
  <linearGradient id="_lgradient_161" x1="1.377" x2="-.638" y1="-.406" y2="1.875" gradientTransform="matrix(109.801,0,0,84.223,140.523,83.936)" gradientUnits="userSpaceOnUse">
   <stop offset="0%" style="stop-color:rgb(247,160,118)"/>
   <stop offset="44.55%" style="stop-color:rgb(243,129,108)"/>
   <stop offset="100%" style="stop-color:rgb(240,104,120)"/>
  </linearGradient>
  <path fill="url(#_lgradient_161)" d="M 250.025 168.159 C 250.121 164.024 250.324 160.36 250.324 155.745 L 250.324 96.493 C 250.324 91.825 250.119 88.113 250.021 83.936 C 214.339 94.329 140.523 125.854 140.523 125.854 C 140.523 125.854 214.193 157.789 250.025 168.159 Z"/>
  <linearGradient id="_lgradient_162" x1=".96" x2="-1.015" y1="-.038" y2="2.196" gradientTransform="matrix(112.047,0,0,105.875,137.387,12.401)" gradientUnits="userSpaceOnUse">
   <stop offset="0%" style="stop-color:rgb(157,198,59)"/>
   <stop offset="100%" style="stop-color:rgb(155,193,131)"/>
  </linearGradient>
  <path fill="url(#_lgradient_162)" d="M 249.434 68.126 C 249.259 65.776 249.101 63.379 248.859 61.218 C 248.495 57.964 248.051 54.92 247.514 52.071 C 246.976 49.223 246.346 46.57 245.609 44.1 C 244.873 41.631 244.031 39.345 243.07 37.229 C 242.109 35.114 241.03 33.17 239.818 31.382 C 238.607 29.594 237.263 27.963 235.775 26.477 C 234.288 24.991 232.655 23.65 230.865 22.44 C 229.075 21.23 227.128 20.152 225.01 19.192 C 222.892 18.233 220.603 17.392 218.131 16.657 C 215.659 15.922 213.004 15.291 210.152 14.755 C 207.301 14.218 204.253 13.775 200.996 13.411 C 197.739 13.047 194.272 12.764 190.584 12.548 C 188.773 12.441 186.392 12.477 184.473 12.401 C 166.512 45.676 137.387 118.276 137.387 118.276 C 137.387 118.276 219.841 85.713 249.434 68.126 Z"/>
  <linearGradient id="_lgradient_163" x1="1.233" x2="-1.197" y1="-.515" y2="2.235" gradientTransform="matrix(80.369,0,0,103.188,89.758,11.95)" gradientUnits="userSpaceOnUse">
   <stop offset="0%" style="stop-color:rgb(213,222,38)"/>
   <stop offset="100%" style="stop-color:rgb(197,217,75)"/>
  </linearGradient>
  <path fill="url(#_lgradient_163)" d="M 170.127 12.057 C 168.538 12.046 167.337 11.95 165.686 11.95 L 90.314 11.95 C 90.107 11.95 89.964 11.964 89.758 11.964 C 101.737 49.461 129.809 115.138 129.809 115.138 C 129.809 115.138 158.208 49.57 170.127 12.057 Z"/>
  <linearGradient id="_lgradient_164" x1="1.489" x2="-.427" y1="-.589" y2="1.579" gradientTransform="matrix(115.453,0,0,105.969,6.777,12.305)" gradientUnits="userSpaceOnUse">
   <stop offset="0%" style="stop-color:rgb(242,210,0)"/>
   <stop offset="100%" style="stop-color:rgb(253,239,82)"/>
  </linearGradient>
  <path fill="url(#_lgradient_164)" d="M 75.477 12.305 C 72.199 12.4 68.397 12.373 65.416 12.548 C 61.728 12.764 58.261 13.047 55.004 13.411 C 51.747 13.775 48.699 14.218 45.848 14.755 C 42.996 15.291 40.341 15.922 37.869 16.657 C 35.397 17.392 33.108 18.233 30.99 19.192 C 28.872 20.152 26.925 21.23 25.135 22.44 C 23.345 23.65 21.712 24.991 20.225 26.477 C 18.737 27.963 17.393 29.594 16.182 31.382 C 14.97 33.17 13.891 35.114 12.93 37.229 C 11.969 39.345 11.127 41.631 10.391 44.1 C 9.654 46.57 9.024 49.223 8.486 52.071 C 7.949 54.92 7.505 57.964 7.141 61.218 C 6.988 62.581 6.903 64.139 6.777 65.577 C 32.128 82.133 122.23 118.274 122.23 118.274 C 122.23 118.274 93.541 45.673 75.477 12.305 Z"/>
  <linearGradient id="_lgradient_165" x1="1.585" x2="-.366" y1="-1.471" y2=".737" gradientTransform="matrix(113.414,0,0,86.18,5.676,82.532)" gradientUnits="userSpaceOnUse">
   <stop offset="0%" style="stop-color:rgb(255,205,16)"/>
   <stop offset="100%" style="stop-color:rgb(242,150,52)"/>
  </linearGradient>
  <path fill="url(#_lgradient_165)" d="M 6.012 82.532 C 5.889 87.116 5.676 91.302 5.676 96.493 L 5.676 155.745 C 5.676 160.566 5.884 164.415 5.988 168.712 C 39.822 159.682 119.09 125.852 119.09 125.852 C 119.09 125.852 40.265 91.674 6.012 82.532 Z"/>
  <linearGradient id="_lgradient_166" x1="1.952" x2=".037" y1="-1.28" y2=".888" gradientTransform="matrix(115.52,0,0,106.482,6.707,133.432)" gradientUnits="userSpaceOnUse">
   <stop offset="0%" style="stop-color:rgb(247,159,28)"/>
   <stop offset="44.55%" style="stop-color:rgb(240,128,33)"/>
   <stop offset="100%" style="stop-color:rgb(237,105,60)"/>
  </linearGradient>
  <path fill="url(#_lgradient_166)" d="M 6.707 185.815 C 6.851 187.55 6.958 189.392 7.141 191.02 C 7.505 194.274 7.949 197.318 8.486 200.167 C 9.024 203.015 9.654 205.668 10.391 208.137 C 11.127 210.607 11.969 212.893 12.93 215.009 C 13.891 217.124 14.97 219.068 16.182 220.856 C 17.393 222.644 18.737 224.275 20.225 225.761 C 21.712 227.246 23.345 228.588 25.135 229.798 C 26.925 231.008 28.872 232.086 30.99 233.046 C 33.108 234.005 35.397 234.846 37.869 235.581 C 40.341 236.316 42.996 236.947 45.848 237.483 C 48.699 238.02 51.747 238.463 55.004 238.827 C 58.261 239.191 61.728 239.474 65.416 239.69 C 68.191 239.853 71.751 239.822 74.783 239.915 C 92.707 206.985 122.227 133.432 122.227 133.432 C 122.227 133.432 32.341 168.952 6.707 185.815 Z"/>
  <linearGradient id="_lgradient_167" x1="2.466" x2=".047" y1="-.866" y2="1.871" gradientTransform="matrix(80.725,0,0,103.717,89.279,136.571)" gradientUnits="userSpaceOnUse">
   <stop offset="0%" style="stop-color:rgb(228,124,38)"/>
   <stop offset="44.55%" style="stop-color:rgb(223,91,39)"/>
   <stop offset="100%" style="stop-color:rgb(221,58,58)"/>
  </linearGradient>
  <path fill="url(#_lgradient_167)" d="M 89.279 240.262 C 89.661 240.263 89.93 240.288 90.314 240.288 L 165.686 240.288 C 167.291 240.288 168.458 240.195 170.004 240.184 C 158.1 202.76 129.805 136.571 129.805 136.571 C 129.805 136.571 101.089 202.851 89.279 240.262 Z"/>
  <linearGradient id="_lgradient_168" x1="1.438" x2="-.537" y1="-.731" y2="1.504" gradientTransform="matrix(112.047,0,0,106.404,137.385,133.434)" gradientUnits="userSpaceOnUse">
   <stop offset="0%" style="stop-color:rgb(243,120,60)"/>
   <stop offset="44.55%" style="stop-color:rgb(239,83,57)"/>
   <stop offset="100%" style="stop-color:rgb(237,41,74)"/>
  </linearGradient>
  <path fill="url(#_lgradient_168)" d="M 184.379 239.839 C 186.329 239.762 188.746 239.798 190.584 239.69 C 194.272 239.474 197.739 239.191 200.996 238.827 C 204.253 238.463 207.301 238.02 210.152 237.483 C 213.004 236.947 215.659 236.316 218.131 235.581 C 220.603 234.846 222.892 234.005 225.01 233.046 C 227.128 232.086 229.075 231.008 230.865 229.798 C 232.655 228.588 234.288 227.246 235.775 225.761 C 237.263 224.275 238.607 222.644 239.818 220.856 C 241.03 219.068 242.109 217.124 243.07 215.009 C 244.031 212.893 244.873 210.607 245.609 208.137 C 246.346 205.668 246.976 203.015 247.514 200.167 C 248.051 197.318 248.495 194.274 248.859 191.02 C 249.1 188.867 249.257 186.478 249.432 184.137 C 220.63 166.873 137.385 133.434 137.385 133.434 C 137.385 133.434 166.331 206.685 184.379 239.839 Z"/>
 </g>
 <g opacity=".4">
  <linearGradient id="_lgradient_169" x1=".517" x2=".517" y1="0" y2="1">
   <stop offset="0%" style="stop-color:rgb(255,255,255)"/>
   <stop offset="12.5%" stop-opacity=".098" style="stop-color:rgb(255,255,255)"/>
   <stop offset="92.5%" stop-opacity=".098" style="stop-color:rgb(0,0,0)"/>
   <stop offset="100%" stop-opacity=".498" style="stop-color:rgb(0,0,0)"/>
  </linearGradient>
  <path fill="none" stroke="url(#_lgradient_169)" stroke-linecap="round" stroke-linejoin="round" stroke-width="4.077" d="M 165.685 11.947 C 239.74 11.947 250.324 22.504 250.324 96.491 L 250.324 155.742 C 250.324 229.728 239.74 240.285 165.685 240.285 L 90.315 240.285 C 16.26 240.285 5.676 229.728 5.676 155.742 L 5.676 96.491 C 5.676 22.504 16.26 11.947 90.315 11.947 L 165.685 11.947 Z" vector-effect="non-scaling-stroke"/>
 </g>
</svg>
